img/benefits/3.svg

<svg width="297" height="270" viewBox="0 0 297 270" fill="none" xmlns="http://www.w3.org/2000/svg">
<g filter="url(#filter0_d)">
<path d="M207.035 180.279C205.22 191.996 194.78 199.465 178.988 203.008C171.7 204.65 163.27 205.45 154.017 205.45C124.734 205.45 101 197.619 101 180.279C101 151.031 128.084 101.151 148.02 91.9491C150.117 90.988 152.128 90.4664 154.017 90.4664C156.029 90.4664 158.218 91.053 160.538 92.1352C164.964 94.2053 169.828 98.0929 174.712 103.221H174.721C192.591 122.036 210.562 157.445 207.035 180.279Z" fill="#688476"/>
<path d="M178.988 203.008C171.7 204.65 163.27 205.45 154.017 205.45C124.734 205.45 101 197.619 101 180.279C101 151.031 128.084 101.151 148.02 91.9491C152.053 91.7533 156.188 91.9305 160.538 92.1352C164.964 94.2053 169.828 98.0929 174.712 103.221C174.281 103.677 173.458 103.845 172.101 103.492C169.809 102.894 168.752 98.3634 166.544 99.4172C166.198 102.177 167.667 103.539 168.761 105.804C169.417 107.155 171.344 111.034 170.156 112.329C168.135 114.521 165.974 110.717 165.019 109.234C163.775 107.304 160.295 96.6654 157.685 101.151C156.582 103.043 158.536 116.292 154.401 113.029C151.006 110.353 152.904 102.941 150.538 99.4164C148.826 99.1093 147.619 100.33 146.608 101.599C143.858 105.048 142.688 109.961 140.92 113.979C138.515 119.453 136.429 125.401 135.382 131.376C132.996 144.887 135.793 160.121 140.537 172.698C144.177 182.329 149.546 192.575 159.388 197.181C164.982 199.802 172.654 201.544 178.988 203.008Z" fill="#92B69A"/>
<path d="M176.76 72.3781C176.639 73.4611 176.199 74.8674 175.489 76.4623C172.177 83.9206 163.055 95.3143 154.242 95.3143C147.123 95.3143 140.031 88.06 135.783 81.3191C132.743 76.4801 131.162 71.9036 132.098 70.4575C132.135 70.3925 132.182 70.3267 132.228 70.2714C135.362 65.6746 137.561 73.2174 144.662 72.006C147.674 71.4933 150.63 63 154.242 63C159.528 63 159.874 70.9709 163.682 72.006C168.686 73.3758 171.166 65.1717 176.386 70.4575C176.752 70.8304 176.864 71.4933 176.76 72.3781Z" fill="#688476"/>
<path d="M175.489 76.4622C172.177 83.9205 163.055 95.3143 154.242 95.3143C147.123 95.3143 140.031 88.0599 135.783 81.319C134.53 78.001 134.296 75.324 137.504 76.3501C142.707 78.0091 142.922 87.4165 149.92 86.2612C150.593 84.1529 149.733 80.8348 151.444 79.1474C154.344 76.2843 153.755 80.4904 154.326 82.5783C156.3 89.7287 159.153 78.131 162.381 77.0212C163.156 81.5807 161.623 88.4052 168.049 82.8205C169.893 81.2175 174.01 75.7627 175.489 76.4622Z" fill="#92B69A"/>
<path d="M167.115 92.3951C167.115 94.0086 165.803 95.3166 164.184 95.3166H145.328C143.71 95.3166 142.398 94.0086 142.398 92.3951C142.398 90.7816 143.71 89.4735 145.328 89.4735H164.184C165.803 89.4735 167.115 90.7816 167.115 92.3951Z" fill="#D2D2D2"/>
<path opacity="0.5" d="M176.761 72.3781C175.713 72.2668 174.805 71.3252 173.355 71.3812C170.081 71.5112 168.209 76.4249 164.982 75.9959C164.646 74.8496 164.103 74.7659 163.149 74.2353C162.765 74.7846 162.363 74.7553 162.074 75.3712C158.425 75.0177 158.191 64.0814 151.511 67.8942C146.234 70.9067 149.115 77.8337 147.076 81.9081C145.055 80.6212 145.055 78.5706 143.961 76.7523C142.594 74.4783 141.098 74.4872 139.031 73.583C137.477 72.8916 134.531 71.7452 132.228 70.2722C135.362 65.6754 137.561 73.2182 144.662 72.0068C147.674 71.4933 150.63 63 154.243 63C159.528 63 159.874 70.9709 163.682 72.006C168.686 73.3758 171.166 65.1717 176.386 70.4575C176.752 70.8304 176.864 71.4933 176.761 72.3781Z" fill="#688476"/>
<path opacity="0.5" d="M199.547 184.822C202.071 178.191 201.233 168.314 199.624 161.513C197.522 152.621 194.074 144.244 191.058 135.65C188.783 129.172 186.215 122.445 182.776 116.45C181.548 114.31 175.019 102.97 174.669 110.545C174.501 114.149 176.064 126.476 168.979 120.179C165.806 117.359 163.836 108.556 160.184 114.88C157.471 119.579 159.317 125.327 159.318 130.677C159.321 139.706 158.716 148.927 160.323 157.775C161.7 165.343 180.944 205.656 191.128 193.211L199.547 184.822Z" fill="#688476"/>
<path d="M153.595 177.208V172.653C149.858 172.727 142.54 167.326 142.54 167.326L147.049 161.106C147.049 161.106 152.254 164.538 155.198 164.747C158.148 164.957 161.169 163.067 161.521 160.616C161.918 157.844 160.829 155.265 155.549 152.215C148.41 148.092 142.752 144.808 142.752 138.28C142.752 132.05 147.195 127.322 154.123 126.195V121.27H158.792V125.896C164.05 126.451 167.984 130.007 167.984 130.007L164.12 136.183C164.12 136.183 161.626 133.924 158.576 133.074C155.408 132.192 152.195 134.836 152.036 136.882C151.896 138.703 152.44 141.671 158.992 144.373C166.749 147.525 170.24 152.99 170.24 159.669C170.24 165.598 166.098 171.152 158.342 172.429V177.209H153.595V177.208Z" fill="white"/>
<path d="M220.186 207C215.995 207 182.074 207 179.737 207C177.4 207 176.639 195.838 179.737 195.838C182.836 195.838 216.36 195.838 220.186 195.838C224.013 195.839 224.378 207 220.186 207Z" fill="#EDCD49"/>
<path d="M182.924 197.722H181.127V207.001H182.924V197.722Z" fill="#C7B28A"/>
<path d="M189.144 197.722H187.347V207.001H189.144V197.722Z" fill="#C7B28A"/>
<path d="M195.365 197.722H193.568V207.001H195.365V197.722Z" fill="#C7B28A"/>
<path d="M201.585 197.722H199.788V207.001H201.585V197.722Z" fill="#C7B28A"/>
<path d="M207.805 197.722H206.009V207.001H207.805V197.722Z" fill="#C7B28A"/>
<path d="M214.026 197.722H212.229V207.001H214.026V197.722Z" fill="#C7B28A"/>
<path d="M220.246 197.722H218.449V207.001H220.246V197.722Z" fill="#C7B28A"/>
<path d="M220.186 184.675C215.995 184.675 182.074 184.675 179.737 184.675C177.4 184.675 176.639 173.512 179.737 173.512C182.836 173.512 216.36 173.512 220.186 173.512C224.013 173.513 224.378 184.675 220.186 184.675Z" fill="#EDCD49"/>
<path d="M182.924 175.396H181.127V184.675H182.924V175.396Z" fill="#C7B28A"/>
<path d="M189.144 175.396H187.347V184.675H189.144V175.396Z" fill="#C7B28A"/>
<path d="M195.365 175.396H193.568V184.675H195.365V175.396Z" fill="#C7B28A"/>
<path d="M201.585 175.396H199.788V184.675H201.585V175.396Z" fill="#C7B28A"/>
<path d="M207.805 175.396H206.009V184.675H207.805V175.396Z" fill="#C7B28A"/>
<path d="M214.026 175.396H212.229V184.675H214.026V175.396Z" fill="#C7B28A"/>
<path d="M220.246 175.396H218.449V184.675H220.246V175.396Z" fill="#C7B28A"/>
<path d="M216.178 195.839C211.986 195.839 178.067 195.839 175.729 195.839C173.391 195.839 172.631 184.676 175.729 184.676C178.826 184.676 212.351 184.676 216.178 184.676C220.004 184.676 220.369 195.839 216.178 195.839Z" fill="#FFE06E"/>
<path d="M179.444 186.336H177.689V195.615H179.444V186.336Z" fill="#C7B28A"/>
<path d="M185.521 186.336H183.766V195.615H185.521V186.336Z" fill="#C7B28A"/>
<path d="M191.6 186.336H189.844V195.615H191.6V186.336Z" fill="#C7B28A"/>
<path d="M197.678 186.336H195.922V195.615H197.678V186.336Z" fill="#C7B28A"/>
<path d="M203.754 186.336H201.998V195.615H203.754V186.336Z" fill="#C7B28A"/>
<path d="M209.832 186.336H208.076V195.615H209.832V186.336Z" fill="#C7B28A"/>
<path d="M215.91 186.336H214.154V195.615H215.91V186.336Z" fill="#C7B28A"/>
<path d="M216.178 173.513C211.986 173.513 178.067 173.513 175.729 173.513C173.391 173.513 172.631 162.351 175.729 162.351C178.826 162.351 212.351 162.351 216.178 162.351C220.004 162.35 220.369 173.513 216.178 173.513Z" fill="#FFE06E"/>
<path d="M179.444 164.011H177.689V173.29H179.444V164.011Z" fill="#C7B28A"/>
<path d="M185.521 164.011H183.766V173.29H185.521V164.011Z" fill="#C7B28A"/>
<path d="M191.6 164.011H189.844V173.29H191.6V164.011Z" fill="#C7B28A"/>
<path d="M197.678 164.011H195.922V173.29H197.678V164.011Z" fill="#C7B28A"/>
<path d="M203.754 164.011H201.998V173.29H203.754V164.011Z" fill="#C7B28A"/>
<path d="M209.832 164.011H208.076V173.29H209.832V164.011Z" fill="#C7B28A"/>
<path d="M215.91 164.011H214.154V173.29H215.91V164.011Z" fill="#C7B28A"/>
</g>
<defs>
<filter id="filter0_d" x="96" y="63" width="132.194" height="154.001" filterUnits="userSpaceOnUse" color-interpolation-filters="sRGB">
<feFlood flood-opacity="0" result="BackgroundImageFix"/>
<feColorMatrix in="SourceAlpha" type="matrix" values="0 0 0 0 0 0 0 0 0 0 0 0 0 0 0 0 0 0 127 0" result="hardAlpha"/>
<feOffset dy="5"/>
<feGaussianBlur stdDeviation="2.5"/>
<feColorMatrix type="matrix" values="0 0 0 0 0 0 0 0 0 0 0 0 0 0 0 0 0 0 0.25 0"/>
<feBlend mode="normal" in2="BackgroundImageFix" result="effect1_dropShadow"/>
<feBlend mode="normal" in="SourceGraphic" in2="effect1_dropShadow" result="shape"/>
</filter>
</defs>
</svg>

<svg width="297" height="270" fill="none" xmlns="http://www.w3.org/2000/svg"><g filter="url(#filter0_d)"><path d="M207.035 180.279c-1.815 11.717-12.255 19.186-28.047 22.729-7.288 1.642-15.718 2.442-24.971 2.442-29.283 0-53.017-7.831-53.017-25.171 0-29.248 27.084-79.128 47.02-88.33 2.097-.961 4.108-1.483 5.997-1.483 2.012 0 4.201.587 6.521 1.67 4.426 2.07 9.29 5.957 14.174 11.085h.009c17.87 18.815 35.841 54.224 32.314 77.058z" fill="#688476"/><path d="M178.988 203.008c-7.288 1.642-15.718 2.442-24.971 2.442-29.283 0-53.017-7.831-53.017-25.171 0-29.248 27.084-79.128 47.02-88.33 4.033-.196 8.168-.019 12.518.186 4.426 2.07 9.29 5.958 14.174 11.086-.431.456-1.254.624-2.611.271-2.292-.598-3.349-5.129-5.557-4.075-.346 2.76 1.123 4.122 2.217 6.387.656 1.351 2.583 5.23 1.395 6.525-2.021 2.192-4.182-1.612-5.137-3.095-1.244-1.93-4.724-12.569-7.334-8.083-1.103 1.892.851 15.141-3.284 11.878-3.395-2.676-1.497-10.088-3.863-13.613-1.712-.307-2.919.914-3.93 2.183-2.75 3.449-3.92 8.362-5.688 12.38-2.405 5.474-4.491 11.422-5.538 17.397-2.386 13.511.411 28.745 5.155 41.322 3.64 9.631 9.009 19.877 18.851 24.483 5.594 2.621 13.266 4.363 19.6 5.827z" fill="#92B69A"/><path d="M176.76 72.378c-.121 1.083-.561 2.49-1.271 4.084-3.312 7.459-12.434 18.852-21.247 18.852-7.119 0-14.211-7.254-18.459-13.995-3.04-4.839-4.621-9.415-3.685-10.862a1.33 1.33 0 01.13-.186c3.134-4.596 5.333 2.946 12.434 1.735 3.012-.513 5.968-9.006 9.58-9.006 5.286 0 5.632 7.97 9.44 9.006 5.004 1.37 7.484-6.834 12.704-1.549.366.373.478 1.036.374 1.921z" fill="#688476"/><path d="M175.489 76.462c-3.312 7.459-12.434 18.852-21.247 18.852-7.119 0-14.211-7.254-18.459-13.995-1.253-3.318-1.487-5.995 1.721-4.969 5.203 1.66 5.418 11.067 12.416 9.911.673-2.108-.187-5.426 1.524-7.114 2.9-2.863 2.311 1.343 2.882 3.431 1.974 7.15 4.827-4.447 8.055-5.557.775 4.56-.758 11.384 5.668 5.8 1.844-1.603 5.961-7.058 7.44-6.359z" fill="#92B69A"/><path d="M167.115 92.395a2.926 2.926 0 01-2.931 2.922h-18.856a2.926 2.926 0 01-2.93-2.922 2.926 2.926 0 012.93-2.921h18.856a2.926 2.926 0 012.931 2.921z" fill="#D2D2D2"/><path opacity=".5" d="M176.761 72.378c-1.048-.111-1.956-1.053-3.406-.997-3.274.13-5.146 5.044-8.373 4.615-.336-1.146-.879-1.23-1.833-1.76-.384.549-.786.52-1.075 1.135-3.649-.353-3.883-11.29-10.563-7.477-5.277 3.013-2.396 9.94-4.435 14.014-2.021-1.287-2.021-3.337-3.115-5.156-1.367-2.274-2.863-2.265-4.93-3.169-1.554-.691-4.5-1.838-6.803-3.31 3.134-4.598 5.333 2.945 12.434 1.734 3.012-.514 5.968-9.007 9.581-9.007 5.285 0 5.631 7.97 9.439 9.006 5.004 1.37 7.484-6.834 12.704-1.549.366.373.478 1.036.375 1.921zm22.786 112.444c2.524-6.631 1.686-16.508.077-23.309-2.102-8.892-5.55-17.269-8.566-25.863-2.275-6.478-4.843-13.205-8.282-19.2-1.228-2.14-7.757-13.48-8.107-5.905-.168 3.604 1.395 15.931-5.69 9.634-3.173-2.82-5.143-11.623-8.795-5.299-2.713 4.699-.867 10.447-.866 15.797.003 9.029-.602 18.25 1.005 27.098 1.377 7.568 20.621 47.881 30.805 35.436l8.419-8.389z" fill="#688476"/><path d="M153.595 177.208v-4.555c-3.737.074-11.055-5.327-11.055-5.327l4.509-6.22s5.205 3.432 8.149 3.641c2.95.21 5.971-1.68 6.323-4.131.397-2.772-.692-5.351-5.972-8.401-7.139-4.123-12.797-7.407-12.797-13.935 0-6.23 4.443-10.958 11.371-12.085v-4.925h4.669v4.626c5.258.555 9.192 4.111 9.192 4.111l-3.864 6.176s-2.494-2.259-5.544-3.109c-3.168-.882-6.381 1.762-6.54 3.808-.14 1.821.404 4.789 6.956 7.491 7.757 3.152 11.248 8.617 11.248 15.296 0 5.929-4.142 11.483-11.898 12.76v4.78h-4.747v-.001z" fill="#fff"/><path d="M220.186 207h-40.449c-2.337 0-3.098-11.162 0-11.162h40.449c3.827.001 4.192 11.162 0 11.162z" fill="#EDCD49"/><path d="M182.924 197.722h-1.797v9.279h1.797v-9.279zm6.22 0h-1.797v9.279h1.797v-9.279zm6.221 0h-1.797v9.279h1.797v-9.279zm6.22 0h-1.797v9.279h1.797v-9.279zm6.22 0h-1.796v9.279h1.796v-9.279zm6.221 0h-1.797v9.279h1.797v-9.279zm6.22 0h-1.797v9.279h1.797v-9.279z" fill="#C7B28A"/><path d="M220.186 184.675h-40.449c-2.337 0-3.098-11.163 0-11.163h40.449c3.827.001 4.192 11.163 0 11.163z" fill="#EDCD49"/><path d="M182.924 175.396h-1.797v9.279h1.797v-9.279zm6.22 0h-1.797v9.279h1.797v-9.279zm6.221 0h-1.797v9.279h1.797v-9.279zm6.22 0h-1.797v9.279h1.797v-9.279zm6.22 0h-1.796v9.279h1.796v-9.279zm6.221 0h-1.797v9.279h1.797v-9.279zm6.22 0h-1.797v9.279h1.797v-9.279z" fill="#C7B28A"/><path d="M216.178 195.839h-40.449c-2.338 0-3.098-11.163 0-11.163h40.449c3.826 0 4.191 11.163 0 11.163z" fill="#FFE06E"/><path d="M179.444 186.336h-1.755v9.279h1.755v-9.279zm6.077 0h-1.755v9.279h1.755v-9.279zm6.079 0h-1.756v9.279h1.756v-9.279zm6.078 0h-1.756v9.279h1.756v-9.279zm6.076 0h-1.756v9.279h1.756v-9.279zm6.078 0h-1.756v9.279h1.756v-9.279zm6.078 0h-1.756v9.279h1.756v-9.279z" fill="#C7B28A"/><path d="M216.178 173.513h-40.449c-2.338 0-3.098-11.162 0-11.162h40.449c3.826-.001 4.191 11.162 0 11.162z" fill="#FFE06E"/><path d="M179.444 164.011h-1.755v9.279h1.755v-9.279zm6.077 0h-1.755v9.279h1.755v-9.279zm6.079 0h-1.756v9.279h1.756v-9.279zm6.078 0h-1.756v9.279h1.756v-9.279zm6.076 0h-1.756v9.279h1.756v-9.279zm6.078 0h-1.756v9.279h1.756v-9.279zm6.078 0h-1.756v9.279h1.756v-9.279z" fill="#C7B28A"/></g><defs><filter id="filter0_d" x="96" y="63" width="132.194" height="154.001" filterUnits="userSpaceOnUse" color-interpolation-filters="sRGB"><feFlood flood-opacity="0" result="BackgroundImageFix"/><feColorMatrix in="SourceAlpha" values="0 0 0 0 0 0 0 0 0 0 0 0 0 0 0 0 0 0 127 0" result="hardAlpha"/><feOffset dy="5"/><feGaussianBlur stdDeviation="2.5"/><feColorMatrix values="0 0 0 0 0 0 0 0 0 0 0 0 0 0 0 0 0 0 0.25 0"/><feBlend in2="BackgroundImageFix" result="effect1_dropShadow"/><feBlend in="SourceGraphic" in2="effect1_dropShadow" result="shape"/></filter></defs></svg>
